X: 1407
T: The Deil Amang The Tailors
P: The Deil Amang The Tailors
C:Gow
R:Reel (8x32)
B:RSCDS 14-7
Z:Anselm Lingnau <anselm@strathspey.org>
M:C|
L:1/8
K:A
g2|"A"a2 eg a2 eg|a2 ea fedc|"Bm"dfBf dfBf|dfba "E"gefg|
   "A"a2 eg a2 eg|a2 ea fedc|"Bm"defd "A"ecBA|"E"E2 G2 "A"A2||
e2|"A"ceAe ceAe|ceag fedc|"Bm"dfBf dfBf|dfba "E"gfed|
   "A"ceAe ceAe|ceag fedc|"Bm"defd "A"ecBA|"E"E2 G2 "A"A2|]
%%center Book14/1407-Deil_Amang_The_Tailors-AL.abc

%%sep 1 1 500
%%sep 1 1 500

